X:7
T:Captain Nemo
M:6/8
Q:3/8=120
R:jig
K:G
"G"G2B d2d|"C"gfe "G"d3|"D"c2c "G"B2B|"D"AGA "G"B2A|
"G"G2B d2d|"C"gfe "G"d3|"D"c2c "G"B2B|"D"AGA "G"G3:|
|:"Em"B3 B3|"Em"BAB "Am"c3|"G"B2c d2c|"D"B2A "G"B2G|
"Em"B3 B3|"Em"BAB "Am"c3|"G"Bdg dBG|"A"A3 "G"G3:|
